packages/katcn/src/icons/svg/settings.svg

<svg width="24" height="27" viewBox="0 0 24 27" fill="none" xmlns="http://www.w3.org/2000/svg">
<path fill-rule="evenodd" clip-rule="evenodd" d="M10.0144 2.82095C11.2164 2.14237 12.6836 2.14237 13.8856 2.82095C13.8947 2.82604 13.9036 2.83127 13.9125 2.83665L20.1001 6.58898C21.3211 7.28515 22 8.54301 22 9.90786V16.8178C22 18.1375 21.3552 19.4303 20.1836 20.0451L14.0125 23.7874C14.0036 23.7927 13.9947 23.798 13.9856 23.8031C12.7836 24.4817 11.3164 24.4817 10.1144 23.8031C10.1053 23.798 10.0964 23.7927 10.0875 23.7874L3.89984 20.035C2.67884 19.3388 2 18.081 2 16.7162V9.90786C2 8.54426 2.6776 7.28747 3.8965 6.59091L9.98139 2.84041C9.99225 2.83371 10.0032 2.82722 10.0144 2.82095ZM11.0006 4.58915L4.91861 8.33789C4.90775 8.34459 4.89675 8.35107 4.88564 8.35735C4.31578 8.67905 4 9.24576 4 9.90786V16.7162C4 17.3783 4.31578 17.945 4.88564 18.2667C4.89466 18.2718 4.9036 18.277 4.91246 18.2824L11.0978 22.0333C11.6895 22.3618 12.4105 22.3618 13.0022 22.0333L19.1875 18.2824C19.2088 18.2695 19.2306 18.2574 19.2528 18.2461C19.6582 18.0401 20 17.5168 20 16.8178V9.90786C20 9.24576 19.6842 8.67905 19.1144 8.35735C19.1053 8.35225 19.0964 8.34702 19.0875 8.34165L12.9022 4.59072C12.3115 4.26274 11.5918 4.26222 11.0006 4.58915ZM12 11.2289C10.8402 11.2289 9.89999 12.1843 9.89999 13.3628C9.89999 14.5414 10.8402 15.4968 12 15.4968C13.1598 15.4968 14.1 14.5414 14.1 13.3628C14.1 12.1843 13.1598 11.2289 12 11.2289ZM7.89999 13.3628C7.89999 11.0618 9.73563 9.19654 12 9.19654C14.2644 9.19654 16.1 11.0618 16.1 13.3628C16.1 15.6638 14.2644 17.5291 12 17.5291C9.73563 17.5291 7.89999 15.6638 7.89999 13.3628Z" fill="black"/>
</svg>

<svg xmlns="http://www.w3.org/2000/svg" fill="none" viewBox="0 0 24 27"><path fill="#000" fill-rule="evenodd" d="M10.014 2.821a3.94 3.94 0 0 1 3.899.016L20.1 6.589c1.221.696 1.9 1.954 1.9 3.319v6.91c0 1.32-.645 2.612-1.816 3.227l-6.172 3.742-.026.016a3.94 3.94 0 0 1-3.899-.016L3.9 20.035C2.679 19.339 2 18.081 2 16.716V9.908c0-1.364.678-2.62 1.897-3.317L9.98 2.84zm.987 1.768L4.919 8.338l-.033.02c-.57.321-.886.888-.886 1.55v6.808c0 .662.316 1.229.886 1.55l.026.016 6.186 3.751a1.96 1.96 0 0 0 1.904 0l6.185-3.75q.033-.02.066-.037c.405-.206.747-.73.747-1.428v-6.91c0-.662-.316-1.229-.886-1.55l-.027-.016-6.185-3.751a1.96 1.96 0 0 0-1.901-.002M12 11.23c-1.16 0-2.1.955-2.1 2.134s.94 2.134 2.1 2.134 2.1-.956 2.1-2.134c0-1.179-.94-2.134-2.1-2.134m-4.1 2.134c0-2.301 1.836-4.166 4.1-4.166s4.1 1.865 4.1 4.166c0 2.3-1.836 4.166-4.1 4.166s-4.1-1.865-4.1-4.166" clip-rule="evenodd"/></svg>
